X:0859
T:Major Crichton's Delight,
T:for the Ger: Flute.
N:variant of Davy Davy Knick-Knack
N:Aird only prints 15 bars for the final part
M:2/4
L:1/16
Q:1/4=96
I: :: ::
Z:Jack Campin * www.campin.me.uk * 2009
K:D
(dcde) f4  |(dc`de) f4    |(agfg e2e2)|agfg e2e2|\
 dcde  f4  | dc`de  f4    | gbag fedc |dcde d4 :|
 a3`g``f2f2| d'2d'2 c'4   | agfg e2e2 |agfg e4  |\
 a3`g``f2f2| d'2d'2`a3```g| fbag fedc |dcde d4 :|
 f6      g2| a2`b2``c'2d'2| b4   b2b2 |b8       |\
 e6      f2| g2`b2``a2`g2 | g4   f3`f |f8       |
 f6      g2| a2`b2``c'2d'2| b4   b2b2 |\
 b6      g2| f2`d'2`b2`g2 | f4   e4   |d8      :|
<end>
<start>
